svg/git-compare.svg

<?xml version="1.0" encoding="UTF-8"?>
<svg xmlns="http://www.w3.org/2000/svg" xmlns:xlink="http://www.w3.org/1999/xlink" width="32" height="32" viewBox="0 0 32 32">
<path fill-rule="nonzero" fill="rgb(0%, 0%, 0%)" fill-opacity="1" d="M 22 25.667969 C 22 23.273438 23.941406 21.335938 26.335938 21.335938 C 28.730469 21.335938 30.667969 23.273438 30.667969 25.667969 C 30.667969 28.0625 28.726562 30.003906 26.335938 30.003906 C 23.941406 30.003906 22 28.0625 22 25.667969 M 26.332031 23.332031 C 25.042969 23.332031 24 24.378906 24 25.667969 C 24 26.957031 25.046875 28 26.335938 28 C 27.625 28 28.667969 26.953125 28.667969 25.664062 C 28.667969 24.375 27.621094 23.332031 26.332031 23.332031 M 18.539062 2.292969 C 18.929688 2.683594 18.929688 3.316406 18.539062 3.707031 L 16.914062 5.332031 L 22.332031 5.332031 C 25.09375 5.332031 27.332031 7.570312 27.332031 10.332031 L 27.332031 22 C 27.332031 22.550781 26.882812 23 26.332031 23 C 25.78125 23 25.332031 22.550781 25.332031 22 L 25.332031 10.332031 C 25.332031 8.675781 23.988281 7.332031 22.332031 7.332031 L 16.914062 7.332031 L 18.542969 8.960938 C 18.921875 9.355469 18.914062 9.976562 18.527344 10.363281 C 18.140625 10.746094 17.519531 10.753906 17.125 10.375 L 13.792969 7.039062 C 13.402344 6.648438 13.402344 6.015625 13.792969 5.625 L 17.125 2.292969 C 17.515625 1.902344 18.148438 1.902344 18.539062 2.292969 M 10 6.332031 C 10 8.726562 8.058594 10.664062 5.664062 10.664062 C 3.269531 10.664062 1.332031 8.726562 1.332031 6.332031 C 1.332031 3.9375 3.273438 1.996094 5.664062 1.996094 C 8.058594 1.996094 10 3.9375 10 6.332031 M 5.667969 8.667969 C 6.957031 8.667969 8 7.621094 8 6.332031 C 8 5.042969 6.953125 4 5.664062 4 C 4.375 4 3.332031 5.046875 3.332031 6.335938 C 3.332031 7.625 4.378906 8.667969 5.667969 8.667969 M 13.460938 29.707031 C 13.070312 29.316406 13.070312 28.683594 13.460938 28.292969 L 15.085938 26.667969 L 9.667969 26.667969 C 6.90625 26.667969 4.667969 24.429688 4.667969 21.667969 L 4.667969 10 C 4.667969 9.449219 5.117188 9 5.667969 9 C 6.21875 9 6.667969 9.449219 6.667969 10 L 6.667969 21.667969 C 6.667969 23.324219 8.011719 24.667969 9.667969 24.667969 L 15.085938 24.667969 L 13.457031 23.039062 C 13.066406 22.648438 13.066406 22.011719 13.460938 21.621094 C 13.851562 21.234375 14.484375 21.234375 14.875 21.625 L 18.207031 24.960938 C 18.597656 25.351562 18.597656 25.984375 18.207031 26.375 L 14.875 29.707031 C 14.484375 30.097656 13.851562 30.097656 13.460938 29.707031 "/>
</svg>

<svg role="img" viewBox="0 0 32 32" height="32" width="32" xmlns="http://www.w3.org/2000/svg"><path d="M22 25.668a4.333 4.333 0 0 1 4.336-4.332 4.33 4.33 0 0 1 4.332 4.332 4.335 4.335 0 0 1-4.332 4.336A4.336 4.336 0 0 1 22 25.668m4.332-2.336A2.334 2.334 0 1 0 26.336 28a2.334 2.334 0 0 0-.004-4.668M18.539 2.293a1 1 0 0 1 0 1.414l-1.625 1.625h5.418a5 5 0 0 1 5 5V22c0 .55-.45 1-1 1s-1-.45-1-1V10.332a3 3 0 0 0-3-3h-5.418l1.629 1.629a1 1 0 0 1-.016 1.402 1.003 1.003 0 0 1-1.402.012l-3.332-3.336a1 1 0 0 1 0-1.414l3.332-3.332a1 1 0 0 1 1.414 0M10 6.332a4.333 4.333 0 0 1-4.336 4.332 4.33 4.33 0 0 1-4.332-4.332 4.335 4.335 0 0 1 4.332-4.336A4.336 4.336 0 0 1 10 6.332M5.668 8.668A2.334 2.334 0 1 0 5.664 4a2.334 2.334 0 0 0 .004 4.668m7.793 21.039a1 1 0 0 1 0-1.414l1.625-1.625H9.668a5 5 0 0 1-5-5V10c0-.55.45-1 1-1s1 .45 1 1v11.668a3 3 0 0 0 3 3h5.418l-1.629-1.629a1 1 0 1 1 1.418-1.414l3.332 3.336a1 1 0 0 1 0 1.414l-3.332 3.332a1 1 0 0 1-1.414 0"/></svg>
